X:192
T:D\`omhnull Cl\'eireach
R:Strathspey
B:The Athole Collection
M:C
L:1/8
K:D
A|F>D D/D/D A>FE>A|F>D D/D/D d>ed>c|B>AB>d e>E E<F|
A/A/A B>A d>DD:|
|:E|D/D/D F>D B,>DE>F|D/D/D F>E D>B,A,>B,|D/D/D F>D B,>DE>F|
A/A/A B>A d>DD:|
|:A|d/d/d d/d/d e/e/e e/e/e|d/d/d d2 d>FE>D|d/d/d d/d/d e/e/e e/e/e|
d>BA>B d2d:|
|:A|B/c/d B/c/d A>FE>D|B/B/B B/B/B B>AB>c|B/c/d B/c/d A>F E<F|
D>B,A,>B, D2D:|


